X:204
T:Scotch Sett Of Quadrilles No.4. Le4.204
M:6/8
L:1/8
Q:3/8=90
N:* Rest inserted by transcriber
B:L.Leadley MS#4 c1850
Z:Village Music Project 2016 Steve Mansfield
K:C
G | cde G2e | {g}f2e edc | cde G2G | AcB c2G |
cde G2e | {g}f2e edc | cde G2G | AcB c2 ||
G | c2e g2e & D2G E2G | a2^f g2e & ^F2D E2G | c2e g2f & E2G E2G | e2f g2g & D2D E2E |
afd def & (FAF) (FEE) | fec c2G & EGE EGE | cde G2G & EDC CDC | AcB c2 & FGF E2 !segno! ||
"*" z | c(ce) (gge) | ag^f g2e | c2e g2f | e2f g2g |
(af)d def | gec c2G | cde G2G | AcB c2 |]

